X: 187
T:Lady Peel
B:William Marshall Volume 2nd Of A Collection Of Scottish Melodies (1845)
C:William Marshall
L:1/8
M:4/4
N:Moderately Slow.  Same tune as 'Miss Gibson Craig' one
N:page earlier
O:Scotland
R:Strathspey
Z:Clark Bernst
%%Page:33 - 1
F:http://richardrobinson.tunebook.org.uk/tune/4030
%%TBL:{"version":1,"type":"tune","id":"4030"}
K:Eb
B, [| \
E3/2{FEDE}F/ E/D/{D}C/B,/ CFF3/2G/ | EBGe Bgeb | \
E3/2{FEDE}F/ E/D/{D}C/B,/ CFF3/2G/ | B,3/2E/ E/D/{D}C/B,/ E2 EB, |
E3/2{FEDE}F/ E/D/{D}C/B,/ CFF3/2G/ | EBGe Bgeb | \
E3/2{FEDE}F/ E/D/{D}C/B,/ CFF3/2G/ | B,3/2E/ E/D/{D}C/B,/ E2 EB, [|
e3/2f/ e/d/c/B/ cff3/2g/ | egce BeGE | \
e3/2{g}f/ e/d/c/B/ cff3/2g/ | e3/4d//c/B/ cd e2 eB |
e3/2f/ e3/4d//c/B/ cff3/2g/ | egce BeG3/2E/ | \
AcGB CFFG | C3/2E/ E/D/{D}C/B,/ E2 EB, |]

